X:1
T:Introduction and Polonaise brillante
T:Introduction and Polonaise brillante
T:Op. 3
T:F. F. Chopin
C:F. F. Chopin
%%score 1 { ( 2 4 ) | ( 3 5 ) }
L:1/8
Q:1/4=89
M:4/4
K:C
V:1 bass nm="Violoncello"
V:2 treble nm="Pianoforte."
V:4 treble 
V:3 bass 
V:5 bass 
V:1
"^Lento""^INTRODUCTION." z8 | z4 z2[K:tenor]!p!"^espress." G,2 | %2
 (EF/4E/4^D/4E/4!>(!^FG)!>)! (C=D/4C/4B,/4C/4!>(!^DE)!>)! | A,3{/C} (_B,/>A,/) A,2 z2 | z8 | %5
[K:bass] z4 z2[K:tenor] A,2 | (FG/4F/4E/4F/4^GA) (DE/4D/4^C/4D/4^F>=G) | %7
 G2-[K:treble] (G/4A/4G/4^F/4"^rall."[Q:1/4=89].G/4[Q:1/4=88]"^.2".A/4[Q:1/4=87]"^.3".B/4[Q:1/4=86]"^.5".c/4)[Q:1/4=85]"^.6"{/c} (G2[Q:1/4=78]"^.8" =F2) | %8
[K:tenor][Q:1/4=72]"_a tempo"[Q:1/4=72]"^a tempo"!<(! (E4!<)!!>(! _E4)!>)! | %9
 (D3 B,)!<(! (C2{DCB,C} DE!<)! | .G) z F3!>(! EDC!>)! | (D3 F/E/) (D2!<(! EF)!<)! | %12
 (G2 AG) (F2 G>D) |"_cresc." (E2 FE) (5:4:5(D/E/D/C/D/) (E>B,) |!p! C[K:treble] (c2 B- B)(AG^F) | %15
[K:tenor] (!>!G2 EA) (=F2 GF) |!<(! E4!<)!!mp!!>(! _E4!>)! |!p! (D3 B,) (C2{DCB,C} DE | %18
 .G) z (F3 E) (3EDC | (!>!E4 D2) EF | (G2 AG) (F2 G2) |!<(! (E2!<)!!>(! F>E)!>)! D2!<(! (G,2!<)! | %22
 G2)"^poco rall." (3(EDC) D2 (3(EDC) | %23
[Q:1/4=72]"_a tempo"[Q:1/4=72]"^a tempo""^poco più mosso" D4 |[K:bass] z2!f! G,,F,, | %25
 _E,, z _E,2- E,/(F,/E,/D,/ E,/G,/C/D/) | _E"_cresc." !>!C2 !>!G,2 !>!_E,!>!D,!>!C, | %27
 F,, z!>(! F,2-!>)! F,/(G,/!<(!F,/=E,/ F,/_A,/D/_E/)!<)! | %28
"^sempre cresc." F !>!D2 !>!_A,2 !>!F,!>!_E,!>!D, | %29
 G,, z!>(! G,2-!>)! G,/(_A,/!<(!G,/^F,/ G,/_B,/_D/=E/)!<)! | %30
[K:treble] G2 _B2[K:bass]"^♭"!f! !trill(!TG,,4{F,,G,,} | _A,,4 _D,2 F,2 | _A,2!f! _A,,2- | %33
 (A,,2 G,,/_A,,/_B,,/A,,/) | G,,!p! (D,G,/=A,/)=B,- B,(A,/G,/ ^F,/G,/A, | %35
 D,)(E,/^F,/ G,/>A,/)B,- B,(A,/^G,/ A,/B,/C/^C/) |!<(!!>(! !trill(!TD8{^CD}!<)!!>)! | %37
"^poco rall." (B,2 D2 E2 DC) | !fermata!B,4- B,/"^rall."(C/B,/A,/B,/C/A,/D/) | %39
{/!fermata!D} !fermata!G,4 !fermata!z4[Q:1/4=80] x16[Q:1/4=72][Q:1/4=76][Q:1/4=84][Q:1/4=88][Q:1/4=92][Q:1/4=96][Q:1/4=100][Q:1/4=104][Q:1/4=108][Q:1/4=112][Q:1/4=116][Q:1/4=120][Q:1/4=124][Q:1/4=128][Q:1/4=132][Q:1/4=136][Q:1/4=140][Q:1/4=144] | %40
 x16 x8 z[Q:3/16=80][Q:1/4=80] ||[M:3/4][Q:1/4=96]"^Allegro con spirito.""^ALLA POLACCA." z6 | %42
 z2 z2 z[K:tenor]!f! (G | (G3) E/F/ G/A/G/^F/ | .G) (C/D/ E3) (=F/E/ | %45
 .D)!<(! !^!G,2 (A,/B,/ C/D/E/F/)!<)! | ((E/D/)(PD/^C/)) ((E/D/)(PD/C/)) D!<(! (E/F/ | %47
 G3)!<)! (E/F/ G/A/G/^F/) | G (C/D/ !>!E3) (=F/E/ | D) A,2!<(! (A,/B,/ C/D/E/D/)!<)! | %50
 (C/B,/A,/B,/) (D2 C) z |[K:bass]"^pizz." C,,2 z2 z2 | C,2 C,2 C,2 | G,,2 z2 C,2 | G,,2 G,,2 G,,2 | %55
 C,2 z2 z2 | C,2 C,2 A,,2 | F,,2 z2"^arco" (F,,2 | G,,2) z (G,,C,) z | %59
[K:tenor] D3!<(! (^C/D/ .E)(D/E/!<)! |!>(! .F)(F/E/)!>)! D2!<(! TE2{DE}!<)! | F3 (E/F/ G)(F/G/) | %62
!<(! A3 (A.B)!<)!(B |!<(! ^GE)!<)! (A2 B)(B | ^GE) !>!A4- | A2!<(! !>!A,!>!B,!>!C!>!D!<)! | %66
"^dolce" (B,4 ^F^G) | (E4 B,A,) |!<(! (^G,B, E2 ^F^G)!<)! |!>(! (E4 B,2)!>)! | E,6- | E,2 z2 z2 | %72
 z6 | z6 | z6 | z6 | z2 z2[K:bass]!<(! E,2!<)! | E,6- | E,3 (^D,/E,/ F,/!<(!E,/D,/E,/!<)! | %79
 ^G,)!<(! (^D,/E,/B,)!<)!!<(! (D,/E,/E)!<)! z |!ff!{/=G,,=D,B,} G6- | %81
[K:tenor]!<(! G2 (.G2 .G2)!<)! | G3!<(! (E/F/ G/!<)!!>(!A/G/^F/!>)! | .G) (C/D/ E3) (=F/E/ | %84
 .D)!<(! !^!G,2 (A,/B,/ C/D/E/F/)!<)! | ((E/D/)(PD/^C/)) ((E/D/)(PD/C/)) .D!<(! (E/F/ | %86
 G3)!<)! (E/F/ G/A/G/^F/ | .G) (C/D/ !>!E3) (=F/E/ | D) (A,[K:treble]c)!<(! (B/A/ G/F/E/D/)!<)! | %89
[K:tenor] (C/B,/A,/B,/) (D2 C) z |[K:bass]"^pizz." C,,2 z2 z2 | C,2 C,2 C,2 | G,,2 z2 C,2 | %93
 G,,2 G,,2 G,,2 | C,2 z2 C,2 | C,2 C,2 A,,2 | F,,2 z2"^arco" F,,2 | G,,3 (G,,.C,) z | %98
!mf!"_cantabile"!<(! (A,2 G,2 C2)!<)! | (C,4 D,E,) |!<(! (F,2 E,F,!<)!!>(!C>_B,)!>)! | %101
 (A,2 G,2 F,2) |!<(! (_B,2 A,2 D2)!<)! |!>(! (D,4 E,^F,)!>)! |!<(! G,3 (G,A,_B,)!<)! | %105
!>(! (_B,4 C,2)!>)! | (C,3!<(! D,/E,/ F,^F,!<)! | G,2)!>(! (_B,>A, G,/=F,/E,/D,/!>)! | %108
 C,)(C,/D,/ F,)(.E,!<(!.F,.^F,) | (G,/A,/_B,/=B,/) (C3!<)! _B,) | A,3 (A, _B,A,) | %111
 (A, !>!^G,2) (G,A,=G,) | ((G,!>(! ^F,2) .F,)!>)! (G,/A,/!>(!_B,/G,/)!>)! | %113
 (=F,/E,/D,/E,/!>(! G,2!>)! F,) z |!ff! C, (C,2 _C,2 _B,,- | B,, A,,2 _A,,2 G,,) | C,, z z2 z2 | %117
!<(! F,4!<)! ^F,2 | G,4 ^G,2 |!>(! (A,4!>)! E,2) |!<(! (F,4!<)! G,2) |!<(! (C,2 E,2 A,2)!<)! | %122
 G,2 z2 (G,,2 |!<(! C,2 E,2 A,2)!<)! | G,4 G,,2 | C,2"_cresc." (F,,2 G,,2) | (_A,,2 G,,2 ^G,,2) | %127
 (=A,,2 ^G,,2 A,,2) | _B,,2 A,,2 =B,,2 | C,2!>(! _B,4-!>)! | B,2!>(! G,4-!>)! | G,2 E,4- | %132
 E,2 (_D,4 | C,2 C) z z2 | (_D,2 C) z z2 | (=D,2 C/) z/ (_E,C/) z/"^rall." =E,- | E, (G,2 _B,DC) | %137
[Q:1/4=96]"_a tempo"[Q:1/4=96]"^a tempo" (A,2 G,2 C2) | (C,4 D,E,) | %139
!<(! (F,2 E,F,!<)!!>(!C>_B,)!>)! | (A,2 G,2!<(! A,2) | (_B,2 A,2 D2)!<)! |!>(! (D,4 E,^F,)!>)! | %143
!<(! (G,4 A,_B,)!<)! | (_B,4 C,2) | (C,3!<(! D,/E,/ F,^F,!<)! | %146
 G,2)!>(! (_B,>A, G,/F,/E,/D,/)!>)! | C,(D,/E,/ F,)(.E,.F,.^F,) | %148
!<(! (G,/A,/_B,/=B,/)!<)! C3 _B,- | B, (!>!A,2 ^G,/A,/ _B,A,) | .A, ^G,2 (G, A,=B, | %151
 ^G,)(E, A,3 B, | ^G,)(E, A,2 B,)B, |[K:tenor] (B,4 ^F^G) | (E4 B,A,) | %155
 (^G,>B,)!<(! (E2 ^F^G)!<)! |!>(! (E4!>)! B,2) | E,6- | E,2 z2 z2 | z6 | z6 | z6 | z6 | %163
 z2 z2[K:bass]!<(! E,2!<)! | E,6- | E,3 (^D,/E,/ F,/!<(!E,/D,/E,/!<)! | %166
 ^G,)!<(!(^D,/E,/ B,)!<)!!<(!(D,/E,/ E)!<)! z |!ff!{/=G,,=D,B,} G6- | %168
[K:tenor]!<(! G2 (.G2 .G2)!<)! | G3 (E/F/ G/A/G/^F/ | .G)(C/D/ E3)!>(! (=F/E/!>)! | %171
 .D) !^!G,2!<(! (A,/B,/ C/D/E/F/)!<)! | ((E/D/)(PD/^C/)) ((E/D/)(PD/C/))!<(! .D (E/F/!<)! | %173
 G3)!<(! (E/F/ G/A/PG/z/4^F/4)!<)! | .G(C/D/ !>!E3) (=F/E/ | %175
 D)!^!A,-!<(! A,/(B,/A,/B,/ C/D/E/D/)!<)! | (C/B,/A,/B,/)!>(! (D2!>)! C) z | %177
[K:bass]"^pizz." C,,2 z2 z2 | C,2 C,2 C,2 | G,,2 z2 C,2 | G,,2 G,,2 G,,2 | C,2 z2 z2 | %182
 C,2 C,2 A,,2 | F,,2 z2"^arco" F,,2 | G,,4 (G,,2 | (A,,6) | _A,,4) [A,,_E,C]2 | %187
!f! [G,,=E,C]2 z2 z2 | z2 z2 z G,, |!f! [C,,G,,E,C]2 z2 z2 | .C,2 .C,2 .C,2 | %191
!p! (3(G,,/D,/B,/(3F/B,/D,/) (3(G,,/D,/B,/(3F/B,/D,/) (3(G,,/D,/C/(3F/C/D,/) | %192
 (3(G,,/D,/C/(3F/C/D,/) (3(G,,/D,/C/(3F/C/D,/) (5:4:5(G,,/D,/B,/D,/G,,/) | [C,,G,,E,C]2 z2 z2 | %194
 .C,2 .C,2 .C,2 |!p! (3(G,,/D,/B,/(3F/B,/D,/) (3(G,,/D,/B,/(3F/B,/D,/) (3(G,,/D,/C/(3F/C/D,/) | %196
 (3(G,,/D,/C/(3F/C/D,/) (3(G,,/D,/C/(3F/C/D,/) (5:4:5(G,,/D,/B,/D,/G,,/) | %197
 [C,,G,,E,C]2 G,,2 [G,,D,B,]2 | [C,,G,,E,C]2 !>!G,,4 | .C,, z z2 z2 | z6 | z2"^pizz." _E,2 _E,,2 | %202
 _A,,2 _E,2 _E,,2 | _A,,2 z2"^arco" (!>!_A,2 |!f! G,^F,G,_A,G,F, | G,2) z2 z2 | z2 z2 z [G,,D,B,] | %207
!f! [C,,G,,E,C]2 z2 z2 | C,2 C,2 C,2 | %209
!p! (3(G,,/D,/B,/(3F/B,/D,/) (3(G,,/D,/B,/(3F/B,/D,/) (3(G,,/D,/C/(3F/C/D,/) | %210
 (3(G,,/D,/C/(3F/C/D,/) (3(G,,/D,/C/(3F/C/D,/) (5:4:5(G,,/D,/B,/D,/G,,/) | [C,,G,,E,C]2 z2 z2 | %212
 .C,2 .C,2 .C,2 |!p! (3(G,,/D,/B,/(3F/B,/D,/) (3(G,,/D,/B,/(3F/B,/D,/) (3(G,,/D,/C/(3F/C/D,/) | %214
 (3(G,,/D,/C/(3F/C/D,/) (3(G,,/D,/C/(3F/C/D,/) (5:4:5(G,,/D,/B,/D,/G,,/) | %215
!f! [C,,G,,E,C]2 G,,2 [G,,D,B,]2 | [C,,G,,E,C]2 G,,2 G,,2 | C,, z z2 z2 | z6 | %219
"^dolce" (^G,2!>(! A,2 ^F,2!>)! | =G,2) z2 (G,2 |!<(! C2!>(! D2!<)! G,2)!>)! | (C2!>(! EDCB,)!>)! | %223
 C2 (A,2 B,2) | (!turn!C2!>(! EDCB,)!>)! | C z z"^pizz."!ff! G,,C,G,, | C,G,CG,CG, | C2 z2 z2 | %228
 [C,,G,,E,C]2 [C,,G,,E,C]2 [C,,G,,E,C]2 | [C,,G,,E,C]2 z2 z2 | %230
 [C,,G,,E,C]2 [C,,G,,E,C]2 [C,,G,,E,C]2 | [C,,G,,E,C]2 z2 z2 | z2"^arco" C,,2 C,,2 | %233
 !fermata!C,,6 |] %234
V:2
[I:staff +1] E, (!>!E,/4F,/4E,/4^F,/4 !>!G,/4A,/4G,/4B,/4[I:staff -1] !>!C/4D/4C/4^D/4"_leggierissimo" !>!E/4=F/4E/4^F/4 G/4A/4G/4B/4 c/4d/4c/4^d/4 e/4=f/4e/4^f/4 | %1
!8va(! g/4a/4g/4b/4 c'/4d'/4c'/4^d'/4 e'/4f'/4e'/4^f'/4 g'/4a'/4g'/4b'/4 c'')!8va)! z z2 | %2
!p! (.c2 .B2 .c2 .^G2) | A6 z2 | %4
[I:staff +1] D, (!>!F,/4G,/4F,/4^G,/4 !>!A,/4_B,/4A,/4^C/4[I:staff -1] !>!D/4E/4D/4E/4 !>!F/4=G/4F/4^G/4 A/4_B/4A/4^c/4 d/4e/4d/4e/4 f/4=g/4f/4^g/4 | %5
 a/4_b/4a/4^c'/4!8va(! d'/4e'/4d'/4f'/4 f'/4g'/4f'/4^g'/4 a'/4_b'/4a'/4^c''/4 d'')!8va)! z z2 | %6
[K:bass]!<(! (D2!<)! E2 A2 D2) |!<(! (D^D)!<)!!p! [CE]2"_rall." z4 | %8
[K:treble] z/!<(! (G,/C/G/!<)!!>(! c/C/G/G,/)!>)! z/!<(! (^F,/C/A/!<)!!>(! c/C/A/A,/)!>)! | %9
 z/!<(! (=F,/B,/F/!<)!!>(! _A/B,/F/F,/)!>)! z/!<(! (E,/G,/C/!<)!!>(! G/G,/C/E,/)!>)! | %10
[K:bass] z/!<(! (F,/G,/D/!<)!!>(! G/G,/D/D,/)!>)! z/!<(! (E,/G,/C/!<)!!>(! G/G,/C/E,/)!>)! | %11
 z/ (D,/G,/C/ G/G,/C/D,/) z/ (D,/G,/B,/ G/G,/B,/D,/) | %12
[K:treble] z/ (G,/C/G/ c/C/G/G,/) z/ (G,/D/G/ d/D/G/G,/) | %13
"_cresc." z/ (G,/E/G/ c/E/F/F,/) z/ (F,/D/F/ B/D/E/E,/) | %14
[K:bass] z/ (E,/C/E/ A/C/E/E,/) z/ (D,/C/E/) z2 | %15
[K:treble] G2 ^G/4A/4^c/4e/4!8va(! a/4e'/4a'/4^g'/4 =g'/4^f'/4=f'/4e'/4 d'/4c'/4b/4a/4!8va)! g/4^g/4b/4a/4 f/4d/4B/4A/4 | %16
 !>!G-(5:4:5(G/4c/4e/4g/4c'/4 .g') z !>!A-!<(!(6:4:6(A/4c/4_e/4^f/4a/4c'/4!<)! .a') z | %17
 !>!B-!<(!(6:4:6(B/4d/4=f/4_a/4b/4d'/4!<)!!8va(! .b') z (3([e'c'']/d'/c'/ (3b/=a/g/!8va)!!>(! (3f/e/d/ (3c/B/A/!>)! | %18
 G) z (3z/ (.[Gg]/.[Ag]/ (3.[Bg]/.[cg]/.[dg]/) [eg]2!<(! (3z/ (.[Gg]/.[Ag]/ (3.[Bg]/.[cg]/.[dg]/)!<)!!p! | %19
 (3.[eg]/.[fa]/.[eg]/!<(! (3.[^d^f]/.[eg]/.[=fa]/ (3.[=db]/.[ec']/.[gd']/ (3.[c'e']/.[gd']/.[ec']/!<)! !arpeggio!.[dgbd'g'] z/!p! (D/ G/B,/D/G,/) | %20
 z/ (G,/C/E/ G/C/E/G,/) z/ (G,/B,/F/ G/B,/F/G,/) | %21
 z/ (G,/_B,/E/ G/B,/E/G,/)[K:bass] z/ (^F,/A,/D/) z/ (=F,/G,/D/) | %22
 z/ (E,/G,/C/ E/G,/C/E,/)"_poco rall." z/ (D,/G,/B,/) z/ (E,/G,/C/) | %23
 (B,/4^F,/4G,/4^G,/4 [B,D]/4A,/4B,/4^C/4[K:treble]"_cresc." [DG]/4^C/4D/4^F/4 [GB]/4F/4G/4^A/4 | %24
"_cresc." [Bd]/4^A/4B/4^c/4 [dg]/4c/4d/4^f/4 [gb]/4f/4g/4^a/4 [bd']/4"_do"a/4b/4d'/4) | %25
!f! [gc'g']!p! (.[Gcg].[Gcg])!f! .[gc'g'] .[gc'g']!p! (.[Gcg].[Gcg])!f! [gc'g'] | %26
 [gg']/!p! ([_A_a]/[Gg]/[^F^f]/ [Gg]/[Bb]/"_cresc."[cc']/[dd']/!8va(! [_e_e']/[^f^f']/[gg']/[bb']/ [c'c'']/[^c'^c'']/[d'd'']/[_e'_e'']/) | %27
 [d'd'']!8va)!!p! (.[_Acd_a].[Acda])!f!!8va(! .[ac'd'_a'] .[ac'd'a']!8va)!!p! (.[Acda].[Acda])!f!!8va(! [ac'd'a']!8va)! | %28
 [_a_a']/!p![_B_b]/[_A_a]/[Gg]/ [Aa]/[^c^c']/[dd']/[ee']/!8va(! [ff']/[gg']/[_a_a']/[^c'^c'']/ [d'd'']/[_e'_e'']/[=e'=e'']/[f'f'']/ | %29
 [e'e'']!8va)!!p! (.[E_B_de].[EBde])"_cresc." .[e_b_d'e'].[ebd'e'] (.[EBde].[EBde]) ([ebd'e'] | %30
!ff! [e_b_d'e'][_debd'][debd'][_Bdeb] [Bdeb][EBde]).[EBde].[EBde] | %31
!p! [F_A_df]/"^legatissimo"!8va(! ([_d'_b']/[f'_a']/[_ag']/ [d'_g']/[ff']/[a_e']/[dd']/!8va)! [fc']/[d_b]/[f_a]/[_Ag]/ [d_g]/[Ff]/[A_e]/[_Dd]/) | %32
 [C^Fc]/[I:staff +1] (C,/4D,/4[I:staff -1] [C=D]/4^F,/4[CD]/4D/4 [cd]/4F/4[cd]/4d/4!8va(! [c'd']/4^f/4[c'd']/4d'/4 | %33
 [c''d'']/4^f'/4d'/4^f/4!8va)! [c'd']/4^f/4d/4^F/4 [cd]/4F/4D/4[K:bass]^F,/4 [CD]/4F,/4D,/4F,/4) | %34
 [D,G,B,D][K:treble]!p! (.[DGd].[DGd])[K:bass] [D,G,B,D][D,^F,CD][K:treble] (.[^Fcd].[^fc'd']) ([DFcd] | %35
 [DGBd]){/d'd-} [dd']!8va(!{/d''d'-}[d'd'']{/d'd-}[dd']!8va)!{/dD-} [Dd]{/d'd-}[dd']!8va(!{/d''d'-}[d'd'']!p!"_sempre"{/d'd-}[dd']!8va)! | %36
 ([Dd][Ee]/)(3(^f/4^F/4f/4 [Gg]/)(3(a/4A/4a/4!>![Bb]-) [Bb]([Aa]/(3g/4G/4g/4 [Ff]/)(3(g/4G/4g/4[Aa] | %37
!pp! .[Dd])([Ee]/"_poco rall."(3^f/4^F/4f/4 [Gg]/)(3(a/4A/4a/4!>![Bb]-) [Bb]([Aa]/(3b/4B/4b/4 [cc']/)(3(d'/4d/4d'/4[ee']/[f^f']/) | %38
 !fermata![gg']2 z2 !fermata!z4 | %39
 !fermata!z4 x3"^veloce"[I:staff +1] !>![^A,D]/B,/[I:staff -1]!>![^CG]/D/"^cresc."!>![^FB]/G/[^Ad]/B/[^cg]/d/[^fb]/g/!8va(![^ad']/b/[^c'g']/d'/[^f'b']/g'/ !fermata![b'd''-]2 (3(d''/^a'/b'/ (3d''/^g'/=a'/ (3c''/^f'/=g'/ (3b'/e'/=f'/ (3a'/^d'/e'/ (3g'/^c'/=d'/ | %40
 (3f'/b/=c'/ (3e'/^a/b/ (3d'/^g/=a/!8va)!"_dim." (3c'/^f/=g/ (3b/e/=f/ (3a/^d/e/ (3g/^c/=d/ (3f/B/=c/ (3e/^A/B/ d)_A"^♭"!<(!{GA} TA8!<)!!>(! (5:4:5G/A/_B/A/G/!>)!!p! !fermata!G2 [FGdg] !fermata!z || %41
[M:3/4]!f! C(3(G,/A,/B,/ .C)(3(G,/A,/B,/ .C)[G,B,D] | %42
 .[G,CE]!>(! (3([B,DG]/G,/G/!>)! .[CE])!>(! (3([B,DG]/G,/G/!>)!!f! .[CE]) (3([B,DG]/G,/G/ | %43
 [G,CE])!p!(.[G,CE]/.[G,CE]/ .[G,CE].[G,CE].[G,CE])([A,C^D] | %44
 [G,CE]).[G,CE]/.[G,CE]/ (.[G,CE].[G,CE].[G,CE].[G,CE]) | %45
 [G,B,F][G,B,F]/[G,CF]/ [G,DF][G,B,F][G,CE][G,CE] | %46
 [G,B,D][G,^A,G]/[G,A,G]/ [G,B,G][G,A,G][G,B,G][G,DF] | %47
 [G,CE](.[G,CE]/.[G,CE]/ .[G,CE].[G,CE].[G,CE])[A,C^D] | %48
 [G,CE][G,CE]/[G,CE]/ (.[G,CE].[^G,=DE].[A,CE].[_B,^C]) | %49
 [A,D][A,DF]/[A,DF]/ (.[A,DF].[A,DF].[A,DF].[A,DF]) | %50
 [B,DF][B,DF]/[B,DF]/ [B,DF]([G,-B,F] [G,CE])"_elegentamente"!mf! (e/f/ | g3) (e/f/ g/a/Pg/^f/ | %52
 .g)(c/d/ e3) (f/e/ | .d) !^!G2!<(! (A/B/ c/d/e/f/!<)! | e/d/)(Pd/^c/) (e/d/)(Pd/c/) .d (e/f/ | %55
 g3 e/f/ g/a/g/^f/ | a/g/)(c/d/ e3) (f/e/ | %57
!<(! .d/)(A/c'/)(a/!8va(! c''/)!<)!z/4(a'/4!>(!f'/d'/!8va)! c'/a/f/d/!>)! | c/B/A/B/ !>!d2 c) G- | %59
!p!G [G,B,D]/[G,B,D]/ [G,_B,D][G,B,D][G,A,^C][G,A,C] | %60
 [F,A,D][F,A,D]/[F,A,D]/ [F,A,D][F,A,D][G,A,^C][G,A,C] | %61
 [F,A,D][F,A,F]/[F,A,F]/ [F,_B,F][F,=B,F][G,CE][_B,CE] | %62
 [A,CF][A,CF]/[A,CF]/ [A,DF][A,DF][A,DF][A,DF] | z [B,DE]z[A,CE]z[A,DF] | %64
 z [^G,DE] [A,CE](B,/A,/ =G,)(A,/G,/) | z!<(! [A,CA]/[A,^CA]/ [A,DA][A,DA][A,DA][A,DA]!<)! | %66
!<(! [B,E^G]"^brillante" (3(B/^c/^d/ (3e/^f/^g/ (3a/^a/b/!8va(! (3^c'/^d'/e'/ (3^f'/^g'/a'/!<)! | %67
!<(! b' (3^g'/^f'/e'/ (3^d'/^c'/b/!8va)! (3a/^g/^f/ (3e/^d/^c/ (3B/^A/=A/)!<)! | %68
!<(! (3(^G/A/^A/ (3B/^c/^d/ (3e/^f/^g/!8va(! (3a/^a/b/ (3^c'/^d'/e'/ (3^f'/^g'/=a'/!<)! | %69
!>(! (3b'/b'/b'/ (3^g'/^f'/e'/ (3^d'/^c'/b/!8va)! (3a/^g/^f/ (3e/^d/^c/ (3B/A/^F/!>)! | %70
 E)!>(! (3(=f/g/f/ (3e/f/e/ (3_e/_f/e/ (3d/e/d/ (3_d/__e/d/ | %71
 (3c/_d/c/ (3_c/__d/_c/ (3_B/c/B/ (3A/B/A/ (3^G/!>)!A/=B/ (3A/=G/F/ | %72
 E)!>(! (3(f'/g'/f'/ (3e'/f'/e'/ (3_e'/_f'/e'/ (3d'/e'/d'/ (3_d'/__e'/d'/ | %73
 (3c'/_d'/c'/ (3_c'/__d'/c'/ (3_b/=c'/b/ (3^g/a/c'/ (3a'/^d'/c'/ (3=b/c'/a/!>)! | %74
 .[^ge'])!p!!8va(! (3^g'/f''/b'/ (3=g'/e''/_b'/ (3^f'/_e''/a'/ (3=f'/d''/_a'/ (3=e'/^c''/g'/ | %75
"^poco              a              poco                    dim." (3f'/d''/^g'/ (3^f'/_e''/a'/ (3=f'/d''/_a'/ (3=e'/^c''/=g'/ (3^d'/=c''/^f'/ (3=d'/b'/=f'/ | %76
 (3^d'/c''/^f'/ (3e'/^c''/g'/ (3_e'/=c''/f'/ (3=d'/b'/=f'/ (3^c'/_b'/=e'/ (3=c'/a'/_e'/ | %77
 (3b/a'/d'/ (3c'/^g'/d'/ (3c'/g'/d'/ (3c'/g'/d'/ (3c'/g'/d'/ (3c'/g'/d'/ | .b'!8va)! z z2 z2 | z6 | %80
!fff!!8va(! (3([d''f'']/c''/[b'd'']/ (3a'/[g'b']/f'/ (3[e'g']/d'/[c'e']/!8va)! (3b/[ac']/g/ (3[fa]/e/[df]/ (3c/[Bd]/A/) | %81
 (3([GB]/F/[EG]/ (3D/[CE]/B,/[I:staff +1] (3[A,C]/G,/[F,A,]/ (3E,/[D,F,]/C,/ (3[B,,D,]/A,,/[G,,B,,]/ (3F,,/[E,,G,,]/D,,/) | %82
[I:staff -1] z!p! (.[G,CE]/.[G,CE]/ .[G,CE].[G,CE].[G,CE])([A,C^D] | %83
 [G,CE]).[G,CE]/.[G,CE]/ (.[G,CE].[G,CE].[G,CE].[G,CE]) | %84
 [G,B,F][G,B,F]/[G,CF]/ [G,DF][G,B,F][G,CE][G,CE] | %85
 [G,B,D][G,^A,G]/[G,A,G]/ [G,B,G][G,A,G][G,B,G][G,DF] | %86
 [G,CE]!p!(.[G,CE]/.[G,CE]/ .[G,CE].[G,CE].[G,CE])([A,C^D] | %87
 [G,CE])(.[G,CE]/.[G,CE]/ .[G,CE].[^G,=DE].[A,CE].[_B,^C]) | %88
 .[A,D] !>![A,D]2 [A,DF]/[A,DF]/ [A,DF][A,DF] | %89
 [B,DF][B,DF]/[B,DF]/ [B,DF](([G,-B,F] [G,CE]))"_elegentamente"!mf! (e/f/ | %90
 g3) (e/f/ g/a/Pg/)z/4(^f/4 | .g)(c/d/ e3) (f/e/ | .d) !^!G2 (A/B/ c/d/e/f/ | %93
 e/d/)(Pd/^c/) (e/d/)(Pd/c/) .d!<(! (e/f/!<)! | g3 e/f/ g/a/Pg/)z/4(^f/4 | %95
 a/)(g/c/)z/4(d/4 e3){/fg} (f/!<(!e/ | %96
 .d/)z/4(A/4c'/)z/4(a/4!<)!!8va(!!>(! c''/)z/4(a'/4f'/d'/!8va)! c'/a/f/d/)!>)! | %97
 (c/>B/A/B/) (!>!d2 c)_B |!p! A[A,CF] z [G,CE] z [G,CE] |[K:bass] z [F,CF][F,CF][F,CF] z [_B,CE] | %100
 z!<(! [A,CF] z [A,DF] z [G,DG]!<)! | z [A,CF] z [G,CE] z [A,CD] | %102
 z [G,_B,D] z [^F,A,D] z [F,A,D] | z [D,G,D][D,G,D][D,G,D] z [^F,CD] | %104
 z [G,_B,D][G,B,D][G,B,D] z [G,B,_D] | z [G,_B,C] [G,B,C][K:treble]!<(![Cc]/[Cc]/[Cc][Cc]!<)! | %106
!p!"^legatiss." (A,/C/c/F/!<(! A/c/c'/f/!8va(! a/c'/c''/f'/!<)! | %107
!>(! e'/c''/g'/c'/!8va)!!>)! e/c'/g/c/ E/c/G/C/) | %108
 (A,/C/c/F/!<(! A/c/c'/f/!8va(! a/c'/c''/f'/!<)! | %109
!>(! e'/c''/g'/c'/!8va)!!>)! e/c'/g/c/!<(! E/c/G/c/)!<)! | !trill(!Tf4{ef}!>(! d'/_b/f'/f/!>)! | %111
 !trill(!T=e4{^de}!>(! c'/a/e'/e/!>)! | !trill(!Td4{^cd}!>(! (g/_b/d'/g'/)!>)! | %113
 z [_Be]2 ([Be][Af])!f! C | c (3([EG]/c/[EG]/c) (3([F_A]/_d/[FA]/d)"_cresc." (3([FA]/=d/[FA]/ | %115
 d) (3([F=A]/d/[FA]/d) (3([F_B]/d/[FB]/d) [F=Bd] | %116
({/E_Bc)} g3"^dolce"!>(! (a/g/ f/e/{/e}d/c/)!>)! | a2-!<(! (a/^g/a/=b/{/d'} c'/b/c'/d'/!<)! | %118
 .^d') !^!e'2 (f'/e'/ P=d'/^c'/d'/b/ | .d') !^!=c'2!>(! (d'/c'/ P_b/a/b/^g/)!>)! | %120
 .^g !^!a2!>(! (=b/a/ =g/e/f/d/!>)! | %121
!p! c)!8va(! (3c''/e''/a'/ (3g'/c''/f'/ (3e'/g'/d'/!<(! (c'/d'/^d'/e'/)!<)! | %122
 (!>![f'a']/e'/) (!>![=d'f']/c'/) (!>![bd']/a/) (!>![gb]/f/)!8va)! (!>![eg]/d/) (!>![ce]/[Gd]/) | %123
 .[Ec]!8va(! (3(c''/e''/a'/ (3g'/c''/f'/ (3e'/g'/d'/!<(! c'/)(^c'/ (3d'/^d'/e'/)!<)! | %124
 (3(f'/a'/e'/ (3=d'/f'/=c'/!8va)! (3b/d'/a/ (3g/b/f/ (3!>!e/g/d/ (3!>!e/g/d/) | %125
 c (B/c/)!f! _d/_D/_A/d/ _e/_E/_B/d/ |"_cresc." c/_E/_A/c/ _e/E/_B/e/"_cresc." =e/=E/=B/=d/ | %127
 ^c/E/A/c/ e/E/B/e/ f/F/=c/_e/ | d/(F/_B/d/ f/)(F/c/f/"_do" !>!g>)f | %129
 [Gce] z!>(! (G/_B/_d/e/!>)!!<(! g/_b/_d'/e'/!<)! | %130
 .g') z!>(! (G/_B/_d/e/!>)!!<(! g/_b/_d'/e'/!<)! | %131
!8va(! _b')!8va)! z!<(! (G/_B/_d/e/ g/_b/_d'/e'/!<)! | %132
!8va(! ._d'')!8va)! z!<(! (G/_B/_d/e/ g/_b/_d'/e'/!<)! | %133
!8va(! .e'')!8va)! z z!<(! (C/D/.[Ec])!<)!!<(! (D/E/!<)! | [Fc]2) z!<(! (_D/_E/.F)!<)! (=D/=E/ | %135
 .[^Fc]2) z!<(! (^D/^E/.[Fc])!<)!!<(! (=E/=F/)!<)! |"_rall." [EGc]6 | %137
[K:bass] z [A,C] z [G,CE] z [G,CE] | z [F,CF][F,CF][F,CF] z [_B,CE] | z [A,CF] z [A,DF] z [G,DG] | %140
 z [A,CF] z [G,CE] z [A,CD] | z [G,_B,D] z [^F,A,D] z [F,A,D] | z [D,G,D][D,G,D][D,G,D] z [^F,CD] | %143
 z [G,_B,D][G,B,D][G,B,D] z [G,B,_D] | z [G,_B,C] [G,B,C][K:treble]!<(![Cc]/[Cc]/[Cc][Cc]!<)! | %145
 (A,/C/c/F/!<(! A/c/c'/f/!8va(! a/c'/c''/f'/!<)! | %146
 e'/!>(!c''/g'/c'/!8va)! e/c'/g/c/ E/c/G/!>)!C/) | %147
 (A,/!<(!C/c/F/ A/c/c'/f/!8va(! a/c'/c''/!<)!f'/ | %148
!>(! e'/c''/g'/c'/!8va)! e/c'/g/c/!>)!!<(! E/c/G/c/)!<)! | %149
 !trill(!Tf4({ef)}!>(! (d'/_b/f'/f/)!>)! | !trill(!T=e4({^de)}!>(! (c'/a/e'/e/)!>)! | %151
 (b/^g/!>(!e'/e/)!>)! (c'/a/!>(!e'/e/)!>)! (c'/a/!>(!e'/e/)!>)! | %152
 (b/^g/!>(!e'/e/)!>)! (c'/a/!>(!e'/e/)!>)!!<(! (b/a/^d'/^d/)!<)! | %153
 [ee']"^brillante" (3(B/^c/^d/!<(! (3e/^f/^g/ (3a/^a/b/!8va(! (3^c'/^d'/e'/ (3^f'/^g'/a'/!<)! | %154
!>(! b' (3^g'/^f'/e'/ (3^d'/^c'/b/!8va)! (3a/^g/^f/ (3e/^d/^c/ (3B/^A/=A/)!>)! | %155
!<(! (3(^G/A/^A/ (3B/^c/^d/ (3e/^f/^g/ (3=a/^a/b/!8va(! (3^c'/^d'/e'/ (3^f'/^g'/a'/!<)! | %156
!>(! (3b'/b'/b'/ (3^g'/^f'/e'/ (3^d'/^c'/b/!8va)! (3a/^g/^f/ (3e/^d/^c/ (3B/A/^F/)!>)! | %157
 E!>(! (3(=f/g/f/ (3e/f/e/ (3_e/_f/e/ (3d/e/d/ (3_d/__e/d/ | %158
 (3c/_d/c/ (3_c/__d/_c/ (3_B/c/B/ (3A/B/A/ (3^G/!>)!A/=B/ (3A/=G/F/ | %159
 E)!>(! (3(f'/g'/f'/ (3e'/f'/e'/ (3_e'/_f'/e'/ (3d'/e'/d'/ (3_d'/__e'/d'/ | %160
 (3c'/_d'/c'/ (3_c'/__d'/c'/ (3_b/=c'/b/ (3^g/a/c'/ (3a'/^d'/c'/ (3=b/c'/a/!>)! | %161
 .[^ge'])!p!!8va(! (3^g'/f''/b'/ (3=g'/e''/_b'/ (3^f'/_e''/a'/ (3=f'/d''/_a'/ (3=e'/^c''/g'/ | %162
"_poco              a              poco" (3f'/d''/^g'/ (3^f'/_e''/a'/ (3=f'/d''/_a'/"_dim." (3=e'/^c''/=g'/ (3^d'/=c''/^f'/ (3=d'/b'/=f'/ | %163
 (3^d'/c''/^f'/ (3e'/^c''/g'/ (3_e'/=c''/f'/ (3=d'/b'/=f'/ (3^c'/_b'/=e'/ (3=c'/a'/_e'/ | %164
 (3b/a'/d'/ (3c'/^g'/d'/ (3c'/g'/d'/ (3c'/g'/d'/ (3c'/g'/d'/ (3c'/g'/d'/ | .b'!8va)! z z2 z2 | z6 | %167
!fff!!8va(! (3([d''f'']/c''/[b'd'']/ (3a'/[g'b']/f'/ (3[e'g']/d'/[c'e']/!8va)! (3b/[ac']/g/ (3[fa]/e/[df]/ (3c/[Bd]/A/) | %168
 (3([GB]/F/[EG]/ (3D/[CE]/B,/[I:staff +1] (3[A,C]/G,/[F,A,]/ (3E,/[D,F,]/C,/ (3[B,,D,]/A,,/[G,,B,,]/ (3F,,/[E,,G,,]/D,,/) | %169
[I:staff -1] z (.[G,CE]/.[G,CE]/ .[G,CE].[G,CE].[G,CE](.[A,C^D]) | %170
 [G,CE]).[G,CE]/.[G,CE]/ (.[G,CE].[G,CE].[G,CE].[G,CE]) | %171
 [G,B,F][G,B,F]/[G,CF]/ [G,DF][G,B,F][G,CE][G,CE] | %172
!<(! [G,B,D][G,^A,G]/[G,A,G]/ [G,B,G]!<)!!>(![G,A,G][G,B,G][G,DF]!>)! | %173
 [G,CE](.[G,CE]/.[G,CE]/ .[G,CE].[G,CE].[G,CE])(([=A,C^D] | %174
 [G,CE]))[G,CE]/[G,CE]/ (.[G,CE]!<(!.[^G,=DE].[A,CE].[_B,^CE])!<)! | %175
 [A,D] !>![A,D]2 [A,DF]/[A,DF]/ [A,DF][A,DF] | %176
 [B,DF][B,DF]/[B,DF]/ [B,DF]!>(!(([G,-B,F] [G,CE]))!>)! (e/f/ | g3) (e/f/ g/a/Pg/)z/4(^f/4 | %178
 .g)(c/d/!>(! e3) (f/e/!>)! | .d) !^!G2!<(! (A/B/ c/d/e/f/!<)! | %180
 e/d/)(Pd/^c/) (e/d/)(Pd/c/)!<(! (d/e/f/^f/!<)! | g3)!<(! (e/f/ g/a/Pg/)z/4^f/4!<)! | %182
 (3(g/a/g/(3c/G/d/) (e3 f/e/ | .d/)z/4!f!(A/4c'/)z/4(a/4!8va(! (c''/)a'/f'/d'/ c'/a/f/d/!8va)! | %184
 .e/)z/4(c/4c'/)z/4(_b/4!8va(! (c''/)_b'/g'/e'/ c'/b/g/e/!8va)! | %185
 .f/)z/4(c/4"_cresc."c'/)(f/ f'/)!8va(!(a/a'/)(=b/ =b'/)(c'/c''/)(d'/ | %186
"_cresc." d''/)(_e'/_e''/)(=b/ =b'/)(c'/c''/)"_do"(d'/ d''/)(^d'/^d''/)(=e'/ | %187
!ff! (3.=e''/)(!>![c''e'']/a'/ (3.g'/)(!>![g'c'']/f'/ (3.e'/)(!>![e'g']/d'/ (3.c'/)(!>![c'e']/a/!8va)! (3.g/)(!>![gc']/f/ (3e/)(!>![eg]/d/ | %188
 (3c/)([ce]/A/ (3G/)([Gc]/F/ (3E/)([EG]/D/ (3C/)([CE]/A,/ G,) [DFGB] | %189
 [CEGc]!p! (3(E/!<(!F/^F/ (3G/A/B/ (3c/d/^d/ (3e/=f/^f/ (3g/a/b/!<)! | %190
 c') (3(e/f/^f/ (3g/a/b/!8va(! (3c'/d'/^d'/ (3e'/f'/^f'/ (3g'/a'/g'/ | %191
 =f') (3(f''/d''/b'/ (3g'/f'/d'/!8va)! (3b/g/f/ (3d/^d/e/ (3f/g/f/ | %192
 _A)!8va(! (3(_a'/f'/d'/ (3c'/_a/f/!8va)! (3d/c/A/!<(! (3G/=A/B/ (3c/d/^d/!<)! | %193
 e)!p! (3(E/F/^F/!<(! (3G/A/B/ (3c/d/^d/ (3e/=f/^f/ (3g/a/b/!<)! | %194
 c') (3(e/f/^f/ (3g/a/b/!8va(! (3c'/d'/^d'/ (3e'/f'/^f'/ (3g'/a'/g'/ | %195
 =f') (3(f''/d''/b'/ (3g'/f'/d'/!8va)! (3b/g/f/ (3d/^d/e/ (3f/g/f/ | %196
 ._A)!8va(! (3(_a'/f'/d'/ (3c'/_a/f/!8va)! (3d/c/A/!<(! (3G/=A/B/ (3c/d/^d/!<)! | %197
 e) (3(e/c'/e/ (3=d/b/d/ (3c/a/c/ (3B/g/B/ (3d/f/d/) | %198
 (3(c/e/c/ (3!>![ec']/g/e/ (3!>![db]/f/d/ (3!>![ca]/e/c/ (3!>![Bg]/d/B/ (3d/f/d/) | %199
 (3c/e/c/ (3^c/e/c/"_cresc." (3d/f/d/ (3e/g/e/ (3f/a/f/ (3e/g/e/ | %200
"_cresc." (3f/a/f/ (3^f/a/f/ (3g/b/g/ (3^g/b/g/ (3a/c'/"_do"a/ (3b/d'/b/ | %201
 [c'_e'] (3.c'/e'/e'/ (3._b/e'/e'/ (3._a/e'/e'/ (3.g/e'/e'/ (3._d'/e'/e'/ | %202
 (3.c'/_e'/e'/ (3.c'/e'/e'/ (3._b/e'/e'/ (3._a/e'/e'/ (3.g/e'/e'/ (3._d'/e'/e'/ | %203
!8va(!"_cresc." (3.c'/_e'/e'/ (3.c'/=e'/e'/ (3.c'/f'/f'/ (3.c'/e'/e'/ (3.c'/f'/f'/ (3.c'/^f'/f'/ | %204
 (3.c'/g'/g'/ (3.c'/_a'/a'/ (3.c'/g'/g'/ (3.c'/^f'/f'/ (3.c'/g'/g'/ (3.c'/=a'/a'/ | %205
!ff! .g'!>(! (3([g'c'']/e''/e'/)!>)!!>(! (3([e'g']/c''/c'/)!>)!!>(! (3([c'e']/g'/g/)!8va)!!>)!!>(! (3([gc']/e'/e/)!>)! (3([eg]/c'/c/) | %206
!f! (3([ce]/g/G/) (3([Gc]/e/E/) (3([EG]/c/C/) (3([CE]/G/G,/) z [DFGB] | %207
 [CEGc]!p! (3(E/!<(!F/^F/ (3G/A/B/ (3c/d/^d/ (3e/=f/^f/ (3g/a/b/!<)! | %208
 c') (3(e/!<(!f/^f/ (3g/a/b/!8va(! (3c'/d'/^d'/ (3e'/f'/^f'/ (3g'/a'/g'/!<)! | %209
 =f') (3(f''/d''/b'/ (3g'/f'/d'/!8va)! (3b/g/f/ (3d/^d/e/ (3f/g/f/ | %210
 _A)!8va(!!>(! (3(_a'/f'/d'/!>)! (3c'/_a/f/!8va)! (3d/c/A/!<(! (3G/=A/B/ (3c/d/^d/!<)! | %211
 e)!p! (3(E/F/^F/!<(! (3G/A/B/ (3c/d/^d/ (3e/=f/^f/ (3g/a/b/!<)! | %212
 c') (3(e/!<(!f/^f/ (3g/a/b/!8va(! (3c'/d'/^d'/ (3e'/f'/^f'/ (3g'/a'/g'/!<)! | %213
!>(! =f') (3(f''/d''/b'/ (3g'/f'/d'/!8va)! (3b/g/f/ (3d/!>)!^d/e/ (3f/g/f/ | %214
 ._A)!8va(! (3(_a'/f'/d'/ (3c'/_a/f/!8va)! (3d/c/A/!<(! (3G/=A/B/ (3c/d/^d/!<)! | %215
 e) (3(e/c'/e/ (3=d/b/d/ (3c/a/c/ (3B/g/B/ (3d/f/d/) | %216
"_cresc." (3(c/e/c/ (3[ec']/g/e/ (3[db]/"_cresc."f/d/ (3[ca]/e/c/ (3[Bg]/d/B/ (3d/"_do"f/d/) | %217
 (3(c/e/c/ (3[^ca]/e/c/"_poco                         a                           poco" (3d/f/d/ (3[e=c']/g/e/ (3f/a/f/ (3[ec']/g/e/) | %218
 (3(f/a/f/ (3[^fd']/a/f/ (3g/b/g/ (3[^ge']/b/g/ (3a/c'/a/ (3[b=g']/d'/b/) | %219
!8va(! (6:4:6(e'/f'/e'/^d'/e'/b/)!<(! (6:4:6(c'/=d'/c'/b/c'/b'/!<)!!>(! (6:4:6a'/^f'/^d'/c'/b/a/)!8va)!!>)! | %220
 (6:4:6(g/a/g/!<(!^f/g/a/)!8va(! (6:4:6(b'/c''/b'/a'/b'/c''/ (6:4:6d'/e'/f'/g'/a'/b'/)!<)! | %221
!f! c''!>(! (3[a'c'']/e''/g'/!>)!!>(! (3[f'a']/c''/e'/!>)!!>(! (3[d'f']/a'/c'/!>)!!>(! (3[bd']/f'/a/!>)!!>(! (3[gb]/d'/f/!8va)!!>)! | %222
!8va(! .[ec'] (3([a'c'']/e''/g'/ (3[f'a']/c''/e'/ (3[d'f']/a'/c'/ (3[bd']/f'/a/ (3[gb]/d'/f/) | %223
 .[ec']!8va)! (3([ac']/e'/g/ (3[fa]/c'/e/ (3[df]/a/c/ (3[Bd]/f/A/ (3[GB]/d/F/) | %224
 .[Ec] (3([ac']/e'/g/ (3[fa]/c'/e/ (3[df]/a/c/ (3[Bd]/f/A/ (3[GB]/d/F/) |!f! [Ec] (de) (de) d | %226
 e!8va(! d'e' d'e' (([bd'] | %227
 .[c'e'])) (3(e'/f'/^f'/ (3g'/a'/g'/) (3(c'/d'/^d'/ (3e'/=f'/e'/) (3(g/a/b/!8va)! | %228
 (3c'/d'/c'/) (3(e/f/^f/ (3g/a/g/) (3(c/d/^d/ (3e/=f/e/) (3(G/A/B/ | %229
 (3c/d/c/) (3(E/F/^F/ (3G/A/G/)"_sempre" (3(C/D/^D/ (3E/=F/E/) (3(G,/A,/B,/ | %230
 (3C/D/C/)[I:staff +1] (3(E,/F,/^F,/ (3G,/A,/G,/) (3(C,/D,/^D,/ (3E,/=F,/E,/) (3(G,,/A,,/B,,/ | %231
 C,) (E,/G,/[I:staff -1] C/E/G/c/ e/g/c'/e'/ |!8va(! e'')!8va)! z!fff! [EGce]2 [egc'e']2 | %233
{/!fermata!C} !fermata!C6 |] %234
V:3
 C,, z z2 z4 | .[C,G,E] z[K:treble]"^dim." .[CGe] z .[cge'] z z2 | %2
[K:bass] .[C,G,] z .[G,,G,] z .[A,,A,] z .[E,,E,] z | .[F,,F,] z .[E,,E,] z .[D,,D,] z z2 | %4
 D,, z z2 z4 | .[D,A,F] z[K:treble] .[DAf] z .[daf'] z z2 |[K:bass] D, z A,, z D,, z G,, z | %7
 [C,,G,,]2 !arpeggio![C,,G,,C,]2 z4 |!ped! [C,,C,]4!ped-up!!ped! [C,,C,]4!ped-up! | %9
!ped! [C,,C,]4!ped-up! [C,,C,]2 z2 |!ped! [B,,,B,,]4!ped-up!!ped! [C,,C,]4!ped-up! | %11
 [G,,,G,,]4 G,,2 F,,2 | [E,,E,]4 [B,,,B,,]4 | %13
 ([C,,C,][B,,,B,,] [A,,,A,,]2 [B,,,B,,]2 [^G,,,^G,,]2) | %14
!p! [A,,,A,,]4!ped! D,,/ z/ z (B,/D/A,/C/)!ped-up! | %15
!ped! .G,,/(G,/B,/D/ ^C/E/A/"^cresc."G,/) (D/F/A/G,/"^dim." B,/F/G/G,/)!ped-up! | %16
!ped! .C,/(G,/C/E/ G/C/E/G,/)!ped-up!!ped! .C,/(^F,/C/_E/ A/C/E/F,/) | %17
 (C,/=F,/B,/D/ _A/B,/D/F,/)!ped-up!!ped! (C,/"^dim."G,/C/E/ G/C/E/G,/)!ped-up! | %18
!ped! .B,,/(G,/D/F/ G/D/F/G,/)!ped-up!!ped! .C,/(G,/C/E/ G/C/E/G,/)!ped-up! | %19
!ped! .G,,/(G,/C/E/ G/C/E/G,/)!ped-up! .G,,/(G,/B,/) z/ F,,2 | %20
!ped! [E,,E,]4!ped-up!!ped! [D,,D,]4!ped-up! |!ped! [^C,,^C,]4!ped-up! [=C,,=C,]2 [B,,,B,,]2 | %22
!ped! [C,,C,]4!ped-up! G,,2 [C,,C,]2 |"^poco più mosso" [G,,D,]G,[G,B,][G,,,G,,] | %24
 [G,,,G,,][G,B,DG][G,,G,][=F,,=F,] | %25
 [_E,,_E,] (.[E,G,C_E].[E,G,CE]) .[E,,E,] .[E,,E,] (.[E,G,CE].[E,G,CE]) [E,,E,] | %26
!ped! [_E,,_E,][E,G,C_E][E,G,CE][E,,E,] [E,,E,][G,CEG][G,CEG][E,,E,]!ped-up! | %27
!ped! [F,,F,] (.[F,CDF].[F,CDF]) .[F,,F,] .[F,,F,] (.[F,CDF].[F,CDF]) [F,,F,] | %28
 [F,,F,][F,CDF][F,CDF][F,,F,]"^cresc." [F,,F,][F,CD_A][F,CDA][F,,F,]!ped-up! | %29
!ped! [G,,G,] (.[G,_B,_D].[G,B,D]) .[G,,G,].[G,,G,] (.[G,B,D].[G,B,D]) [G,,G,]!ped-up! | %30
 [G,,G,][G,_B,_DEG][G,B,DEG][G,,G,] [G,,G,]G,G,[G,,,G,,] | %31
 [_A,,,_A,,][F,_A,_DF][F,A,DF][A,,,A,,] [A,,,A,,][F,A,DF][F,A,DF][A,,,A,,] | %32
!ped! [_A,,,_A,,][A,,_A,][A,,A,][A,,,A,,] | %33
"^cresc." [_A,,,_A,,][K:treble] [_A,CD_A] z[K:bass] [A,,,A,,]!ped-up! | %34
!ped! [G,,,G,,] (.[D,B,].[D,B,]) [G,,,G,,]!ped-up!!ped![G,,,G,,] (.[D,A,D].[D,A,D]) [G,,,G,,]!ped-up! | %35
"^legierissimo"!ped! [G,,,G,,][D,G,B,D][D,G,B,D][G,,,G,,]!ped-up!!ped! [G,,,G,,][D,A,C][D,A,C][G,,,G,,]!ped-up! | %36
!ped! [G,,,G,,][D,G,B,D][D,G,B,D][G,,,G,,]!ped-up!!ped! [G,,,G,,][D,A,CD][D,A,CD][G,,,G,,]!ped-up! | %37
!ped! [G,,,G,,][D,G,B,][D,G,B,][G,,,G,,]!ped-up!!ped! [G,,,G,,][D,^F,C][D,F,C][G,,,G,,]!ped-up! | %38
!ped! !arpeggio!!fermata![G,,D,B,]2 z2 !fermata!z4!ped-up! | %39
 !fermata!z4!ped! G,,,G,,D,!ped-up! x x8 x2!8va(! (3z/[I:staff -1] ^c'/d'/ (3(=f'/b/=c'/ (3e'/^a/b/ (3d'/^g/=a/ (3c'/^f/g/ (3b/e/=f/ | %40
 (3a/^d/e/ (3g/^c/=d/ (3f/B/!8va)!C/[I:staff +1][K:treble] (3e/^A/B/ (3d/^G/=A/ (3=c/^F/=G/ (3B/E/=F/ (3A/^D/E/ (3G/^C/=D/)[K:bass] F2!ped!{B,=C} TC8 (5:4:5B,/C/D/C/B,/!ped-up!!ped! !fermata!B,2- [G,,B,]"_attacca" !fermata!z!ped-up! || %41
[M:3/4] C,(3(G,,/A,,/B,,/ .C,)(3(G,,/A,,/B,,/ .C,)[G,,,G,,] | %42
 .[C,,C,] !>!G,,[C,,C,] !>!G,,[C,,C,] !>!G,, |[C,,C,] C,/C,/ C,C,C,C, | %44
 [C,,C,]C,/C,/ C,C,C, (E,,/F,,/ | .G,,)(G,,/A,,/ .B,,).G,,.C,.C,, | G,,G,,/G,,/ G,,G,,G,,G,, | %47
 [C,,C,]!p!C,/C,/ C,C,C,C, | C,C,/C,/ C,B,,A,,=G,, | F,, !>!F,,2 F,,F,,F,, | %50
 G,, !>!G,,2 G,,[C,,C,] z |!ped! C,[G,CE]/[G,CE]/ [G,CE]!ped-up![G,CE][G,CE][G,C^D] | %52
!ped! C,[G,CE]/[G,CE]/!ped-up! [G,CE][G,CE][G,CE][G,CE] | %53
!ped! G,,G,/G,/ [B,F]G,!ped-up![CE][G,-G] | [G,B,D][G,^A,G]/[G,A,G]/ [G,B,G][G,A,G][G,B,G][G,DF] | %55
!ped! .C,[G,CE]/[G,CE]/ [G,CE][G,CE]!ped-up![G,CE][G,C^D] | %56
!ped! C,[G,CE]/[G,CE]/!ped-up! [G,CE][G,CE]!ped! A,,[A,CE]!ped-up! | %57
!ped! F,, [F,A,D]2 [F,A,D][F,A,D][F,A,D]!ped-up! |!ped! G,,G,/G,/ [B,F]G,!ped-up! [CE] z | %59
 G,,2 z2 (A,,2 | [D,,D,]3) (C,/_B,,/ A,,2) | D,,D, _D,_D,, C,,C, | F,,(F,/E,/ D,2) B,,2 | %63
 ([E,,E,]2 A,,2) (D,,2 | E,,2) A,,(B,,/A,,/ =G,,)(A,,/G,,/) | [F,,F,]3 [F,,F,][F,,F,][F,,F,] | %66
 [E,,E,] [B,,B,]/[B,,B,]/[E,^G,][B,,B,][^F,A,][B,,B,] | %67
!ped! [E,^G,][B,,B,]/[B,,B,]/[E,G,][B,,B,]!ped-up![^F,A,][B,,B,] | %68
!ped! E,,[B,,B,]/[B,,B,]/[E,^G,][B,,B,]!ped-up![^F,A,B,][B,,A,B,] | %69
!ped! [E,^G,B,][B,,B,]/[B,,B,]/[E,G,B,][B,,G,B,]!ped-up![^F,A,B,][B,,A,B,] | %70
 [E,^G,B,][I:staff -1] [Ac][^GB][=G_B][^FA][=F_A] | [EG][_E_G][DF][^C=E][=C^D][I:staff +1][A,C] | %72
 [^G,B,][K:treble] [ac'][^gb][=g_b][^fa][=f_a] | [eg][_e_g][df][c=e][c^d]F | %74
 [Ee]!8va(! d''"^legieriss."^c''=c''b'^a' | b'c''b'_b'a'^g' | a'_b'a'_a'g'^f' | %77
 !>!=f'e'!>!f'e'!>!f'e' | .^g!8va)! z z2 z2 | z6 |[K:bass]!ped! [=G,,,=G,,]2 [G,DFG]2!ped-up! z2 | %81
 z6 | [C,,C,] C,/C,/ C,C,C,C, | [C,,C,]C,/C,/ C,C,C, (E,,/F,,/ | .G,,)(G,,/A,,/ .B,,).G,,.C,.C,, | %85
 G,,G,,/G,,/ G,,G,,G,,G,, | [C,,C,]C,/C,/ C,C,C,C, | C,C,/C,/ C,B,,A,,=G,, | F,, F,,2 F,,F,,F,, | %89
 G,, !>!G,,2 G,,[C,,C,] z |!ped! C,[G,CE]/[G,CE]/ [G,CE][G,CE]!ped-up![G,CE][G,C^D] | %91
 C,[E,C]/[E,C]/ [G,E][E,C][G,E][E,C] | G,,G,/G,/ [B,F]G,[CE][G,-G] | %93
 [G,B,D][G,^A,G]/[G,A,G]/ [G,B,G][G,A,G][G,B,G][G,DF] | %94
 C,[G,CE]/[G,CE]/ [G,CE][G,CE][G,CE][G,C^D] | .C,[G,CE][G,CE][G,CE] A,,[A,CE] | %96
 .F,, [F,A,D]2 [F,A,D][F,A,D][F,A,D] | G,,(G,[B,F]G, [CE]) z |"_ben tenuto" (F,2 C,2 _B,,2) | %99
 (A,,4 G,,2) | (F,,2 D,,2 _B,,,2 | C,,2 C,2) (^F,,2 | G,,2) D,2 C,2 |!>(! (_B,,4!>)! A,,2) | %104
 (G,,4 F,,2 | E,,6) |!ped! F,,(C,/C,/[F,A,C]!ped-up!C,[F,A,C]C,)!ped-up! | %107
!ped! C,,(C,/C,/[G,_B,C]C,[G,B,C]C,)!ped-up! |!ped! F,,(C,/C,/[F,A,C]C,[F,A,C]C,)!ped-up! | %109
!ped! C,,(C,[G,_B,C]C,[G,B,C])!ped-up! z |!ped! .F,,(F,_EF,!ped-up!!ped! _B,,!ped-up![F,D]) | %111
!ped! .=E,,(E,[=B,D]E,!ped-up!!ped! A,,[E,C])!ped-up! | %112
!ped! D,,(D,[A,C]D,!ped-up!!ped! G,,[D,_B,])!ped-up! |!ped! C,, [CG]2 ([CG][F,F]) z!ped-up! | %114
 C,"^con forza" (C.C,) (_C._C,) (_B, | ._B,,) (A,.A,,) (_A,._A,,) [G,,G,] | %116
 [C,,C,] [G,_B,CE]/[G,B,CE]/ [G,B,CE][G,B,CE][G,B,CE][G,B,CE] | %117
 F,[A,CF]/[A,CF]/ [A,CF][A,CF] [^F,,^F,][C_E] |{/G,,} G,4 ^G,2 | A,4 x2 | F,4 G,2 | %121
 C,"^leggieriss."[CE] G,[CE] C,[CE] | .G,,[B,F] D,2 x2 | %123
 .C,"^legatissimo"[G,CE][G,CE][G,CE]C,[G,CE] | G,,G,[B,F]G,[B,F]G, | %125
 [CE] z [F,,,F,,](([F,,F,] [G,,G,]))(([G,,,G,,] | %126
 [_A,,,_A,,]))(([A,,_A,] [G,,G,]))(([G,,,G,,] [^G,,,^G,,]))(([G,,^G,] | %127
 [A,,A,]))(([A,,,A,,] [^G,,,^G,,]))(([G,,^G,] [A,,A,]))(([A,,,A,,] | %128
 [_B,,,_B,,]))(([B,,_B,] [A,,A,]))(([A,,,A,,] [=B,,,=B,,]))(([B,,=B,] | [C,C])) z ((!>![_B,_DE]4 | %130
 .G,)) z ((!>![_B,_DE]4 | .E,)) z (([_B,_DE]4 | ._D,)) z (([_B,_DE]4 | %133
 .C,)) z z (E,/F,/.G,) (F,/G,/ | _A,2) [C,,C,] (F,/G,/.A,) (^F,/G,/ | %135
 .=A,2) [C,,C,] (^F,/^G,/.A,) (=G,/A,/) | [C,_B,]6 | (F,2 C,2 _B,,2) | (A,,4 G,,2) | %139
 (F,,2 D,,2 _B,,,2 | C,,2 C,2) (^F,,2 | G,,2)!>(! D,2!>)! C,2 |!>(! (_B,,4!>)! A,,2) | (G,,4 F,,2 | %144
 E,,6) | F,,"^leggatiss. e leggier."(C,/C,/[F,A,C]C,[F,A,C]C,) | C,,(C,/C,/[G,_B,C]C,[G,B,C]C,) | %147
 F,,(C,/C,/[F,A,C]C,[F,A,C]C,) | C,,(C,/C,/[G,_B,C]C,[G,B,C]C,) | .F,,(F,_EF, _B,,[F,D]) | %150
 E,,(E,[=B,D]E, [A,C][E,E]) | [B,D][E,E] [A,C][E,E] [A,C][E,E] | [B,D][E,E] [A,C][E,E] F,2 | %153
 [E,^G,B,][B,,B,] [E,G,][B,,B,] [^F,A,][B,,B,] | E,,[B,,B,][E,^G,][B,,B,][^F,A,][B,,B,] | %155
 E,,(B,,/B,,/[E,^G,][B,,B,][^F,A,B,][B,,A,B,]) | %156
 [E,^G,B,][B,,B,]/[B,,B,]/[E,G,B,][B,,G,B,][^F,A,B,][B,,A,B,] | %157
 [E,^G,B,][I:staff -1] [Ac][^GB][=G_B][^FA][=F_A] | [EG][_E_G][DF][^C=E][=C^D][I:staff +1][A,C] | %159
 [^G,B,][K:treble] [ac'][^gb][=g_b][^fa][=f_a] | [eg][_e_g][df][c=e][c^d]F | %161
 [Ee]!8va(! d''^c''=c''b'^a' | b'c''b'_b'a'^g' | a'_b'a'_a'g'^f' | !>!=f'e'!>!f'e'!>!f'(e' | %165
 .^g)!8va)! z z2 z2 | z6 |[K:bass]"^con forza"!ped! [=G,,,=G,,]2 [G,DFG]2 z2!ped-up! | z6 | %169
 C,,C,/C,/ C,C,C,C, | C,,C,/C,/ C,C,C, (E,,/F,,/ | .G,,)(G,,/A,,/ .B,,).G,,.C,.C,, | %172
 G,,G,,/G,,/ G,,G,,G,,G,, | [C,,C,]C,/C,/ C,C,C,C, | C,C,/C,/ C,B,,A,,=G,, | %175
 F,, !>!F,,2 F,,F,,F,, | G,, !>!G,,2 G,,[C,,C,] z | %177
!ped! [C,,C,][G,E]/[G,E]/ [E,C][G,E]!ped-up! [E,C][G,E] | %178
!ped! [C,,C,][G,E]/[G,E]/ [E,C][G,E] [E,C][G,E]!ped-up! |!ped! G,,G,/G,/ [B,F]G, [CE]G,-!ped-up! | %180
 [G,B,D][G,^A,G]/[G,A,G]/ [G,B,G][G,A,G][G,B,G][G,DF] | [C,,C,][G,E]/[G,E]/ [E,C][G,E] [E,C][G,E] | %182
!ped! C,[G,E]/[G,E]/ [E,C]!ped-up![G,E]!ped-up!!ped! A,,[A,CE] | %183
!ped! F,, !>![A,CD]2 [A,CD][CDA][A,CD]!ped-up! |!ped! .G,, !>![G,CE]2 [G,CE][CE_B][G,CE]!ped-up! | %185
 A,, [F,CF]2 [F,CF][F,CF][F,CF] |!ped! _A,, [_E,_A,C^F]2 [E,A,CF][A,CF][A,CF]!ped-up! | %187
 [G,C=EG]2 z2 z2 | z2 z2 z [G,,G,] |!ped! .[C,,C,] .C.G,.[CE].E,.[CE]!ped-up! | %190
!ped! C,[CE] .G,[CE] .C,[CE]!ped-up! |!ped! G,,[DF] G,2 C2!ped-up! |!ped! C4!ped-up! B,2 | %193
!ped! .C,C .G,[CE]!ped-up! .E,[CE] |!ped! .C,[CE] .G,[CE] .C,[CE]!ped-up! | %195
!ped! .G,,[DF] G,2 C2!ped-up! |!ped! C4!ped-up! B,2 | [CE][G,G] [DF][G,G] [DF][G,G] | %198
 [CE][G,G] [DFG][G,G] [DFG][G,G] | [CE][K:treble] (!>![A,EG][DF])(!>![=CG_B][FA])(!>![CGB] | %200
 [FA])(!>![DAc] [G=B])(!>![EBd] [Ac])((!>![=Gdf] | %201
 [_Ac_e]))"^delicatiss."([_Ee][Ace][Ee][_B_de][Ee]) | [_Ac_e][_Ee][Ace][Ee][_B_de][Ee] | %203
 [_Ac_e][Ac=e][Acf][Ace][Acf][Ac_e] | [Gc_e][^Fce][Gce][_Ace][Gce][Fce] | [Gc=e] z z2 z2 | %206
[K:bass] [G,,,G,,-]4 [G,,G,]2 |!ped! .[C,,C,] .C.G,.[CE]!ped-up!.E,.[CE] | %208
!ped! C,[CE] .G,[CE] .C,[CE]!ped-up! |!ped! G,,[DF] G,2 C2!ped-up! |!ped! C4!ped-up! B,2 | %211
!ped! .C,C .G,[CE]!ped-up! .E,[CE] |!ped! .C,[CE] .G,[CE] .C,[CE]!ped-up! | %213
!ped! .G,,[DF] G,2 C2!ped-up! |!ped! C4!ped-up! B,2 | [CE][G,G] [DF][G,G] [DF][G,G] | %216
 [CE][G,G] [DFG][G,G] [DFG][G,G] |[K:treble] [CE] ([A,EG][DF]) ([=CG_B][FA]) ([CGB] | %218
 [FA]) ([DAc][G=B]) ([EBd][Ac]) [=Gdf] | ([^GBde]2 [Ace]2) [^FAc^d]2 | %220
 [=Gce]2 z2 (!arpeggio![G,D=FB]2 | [CEc]) z[K:bass] .F,,[F,A,D] .G,,[G,DF] | %222
 .A,,[A,CE] .F,,[F,A,D] .G,,[G,DF] | .C,[G,CE] .F,,[F,A,D] .G,,[G,D] | %224
 .A,,[A,CE] .F,,[F,A,D] .G,,[G,D] | [C,C][K:treble] (!>![G,DF].[CE]) (!>![G,DF].[CE]) (!>![G,DF] | %226
 .[CE]) (!>![Gdf].[ce]) (!>![Gdf].[ce]) (!>![Gdf] | .[ce]) (3(e/f/^f/ .g)(3(c/d/^d/ .e)(3(G/A/B/ | %228
 .c)(3(E/F/^F/ .G)(3(C/D/^D/[K:bass] .E)(3(G,/A,/B,/ | %229
 .C)(3(E,/F,/^F,/ .G,)(3(C,/D,/!ff!^D,/ .E,)(3(G,,/A,,/B,,/ | %230
 .C,)(3(E,,/F,,/^F,,/ .G,,)(3(C,,/D,,/^D,,/ .E,,)(3(G,,,/A,,,/B,,,/ | %231
 .C,,) (C,,/E,,/ G,,/C,/E,/G,/[K:treble] C/E/G/c/ | c') z[K:bass] [C,G,C]2[K:treble] [CGc]2 | %233
[K:bass] !fermata![C,,C,]6 |] %234
V:4
 x8 |!8va(! x5!8va)! x3 | .E z .[DG] z .[CE] z .[B,D] z | .[A,C] z .[A,^C=G] z .[A,DF] z x2 | x8 | %5
 x!8va(! x4!8va)! x3 |[K:bass] A, z [G,^C] z [F,D]!>(! z [F,B,]!>)! z | %7
 [F,G,B,]2 !arpeggio![E,G,]2 x4 |[K:treble] x8 | x8 |[K:bass] x8 | x8 |[K:treble] x8 | x8 | %14
[K:bass] x8 |[K:treble] x3!8va(! x3!8va)! x2 | x8 | x2!8va(! x4!8va)! x2 | x8 | x8 | x8 | %21
 x4[K:bass] x4 | x8 | x2[K:treble] x2 | x4 | x8 | x4!8va(! x4 | %27
 x!8va)! x2!8va(! x2!8va)! x2!8va(! x!8va)! | x4!8va(! x4 | x!8va)! x7 | x8 | %31
 x/!8va(! x7/2!8va)! x4 | x3!8va(! x | x!8va)! x7/4[K:bass] x5/4 | %34
 x[K:treble] x2[K:bass] x2[K:treble] x3 | x2!8va(! x2!8va)! x2!8va(! x2!8va)! | x8 | x8 | x8 | %39
 x13!8va(! x11 | x8!8va)! x d2 x2 x4 x8 ||[M:3/4] x6 | x6 | x6 | x6 | x6 | x6 | x6 | x6 | x6 | x6 | %51
 x6 | x6 | x6 | x6 | x6 | x6 | x2!8va(! x2!8va)! x2 | x6 | x6 | x6 | x6 | x6 | x6 | x6 | x6 | %66
 x4!8va(! x2 | x3!8va)! x3 | x3!8va(! x3 | x3!8va)! x3 | x6 | x6 | x6 | x6 | x!8va(! x5 | x6 | x6 | %77
 x6 | x!8va)! x5 | x6 |!8va(! x3!8va)! x3 | x6 | x6 | x6 | x6 | x6 | x6 | x6 | x6 | x6 | x6 | x6 | %92
 x6 | x6 | x6 | x6 | x2!8va(! x2!8va)! x2 | x6 | x6 |[K:bass] x6 | x6 | x6 | x6 | x6 | x6 | %105
 x3[K:treble] x3 | x4!8va(! x2 | x2!8va)! x4 | x4!8va(! x2 | x2!8va)! x4 | x6 | x6 | x6 | x6 | x6 | %115
 x6 | x6 | x6 | x6 | x6 | x6 | x!8va(! x5 | x4!8va)! x2 | x!8va(! x5 | x2!8va)! x4 | x6 | x6 | x6 | %128
 x4 g/G/d/f/ | x6 | x6 |!8va(! x!8va)! x5 |!8va(! x!8va)! x5 |!8va(! x!8va)! x5 | x6 | x6 | x6 | %137
[K:bass] x6 | x6 | x6 | x6 | x6 | x6 | x6 | x3[K:treble] x3 | x4!8va(! x2 | x2!8va)! x4 | %147
 x4!8va(! x2 | x2!8va)! x4 | x6 | x6 | x6 | x6 | x4!8va(! x2 | x3!8va)! x3 | x4!8va(! x2 | %156
 x3!8va)! x3 | x6 | x6 | x6 | x6 | x!8va(! x5 | x6 | x6 | x6 | x!8va)! x5 | x6 | %167
!8va(! x3!8va)! x3 | x6 | x6 | x6 | x6 | x6 | x6 | x6 | x6 | x6 | x6 | x6 | x6 | x6 | x6 | x6 | %183
 x2!8va(! x4!8va)! | x2!8va(! x4!8va)! | x5/2!8va(! x7/2 | x6 | x4!8va)! x2 | x6 | x6 | %190
 x3!8va(! x3 | x3!8va)! x3 | x!8va(! x2!8va)! x3 | x6 | x3!8va(! x3 | x3!8va)! x3 | %196
 x!8va(! x2!8va)! x3 | x6 | x6 | x6 | x6 | x6 | x6 |!8va(! x6 | x6 | x4!8va)! x2 | x6 | x6 | %208
 x3!8va(! x3 | x3!8va)! x3 | x!8va(! x2!8va)! x3 | x6 | x3!8va(! x3 | x3!8va)! x3 | %214
 x!8va(! x2!8va)! x3 | x6 | x6 | x6 | x6 |!8va(! x6!8va)! | x2!8va(! x4 | x6!8va)! |!8va(! x6 | %223
 x!8va)! x5 | x6 | x (3(B/A/B/ .c) (3(B/A/B/ .c) (3(B/A/B/ | %226
 .c)!8va(! (3(b/a/b/ .c') (3(b/a/b/ .c') x | x6!8va)! | x6 | x6 | x6 | x6 |!8va(! x!8va)! x5 | %233
 x6 |] %234
V:5
 x8 | x2[K:treble] x6 |[K:bass] x8 | x8 | x8 | x2[K:treble] x6 |[K:bass] x8 | x8 | x8 | x8 | x8 | %11
 x8 | x8 | x8 | x8 | x8 | x8 | x8 | x8 | x8 | x8 | x8 | x8 | x4 | x4 | x8 | x8 | x8 | x8 | x8 | %30
 x8 | x8 | x4 | x[K:treble] x2[K:bass] x | x8 | x8 | x8 | x8 | x8 | x4 x G,,3 x10!8va(! x6 | %40
 x8!8va)![K:treble] x[K:bass] F=C x2 x4 x8 ||[M:3/4] x6 | x6 | x6 | x6 | x6 | x6 | x6 | x6 | x6 | %50
 x6 | x6 | x6 | x6 | x6 | x6 | x6 | x6 | x6 | x6 | x6 | x6 | x6 | x6 | x6 | x6 | x6 | x6 | x6 | %69
 x6 | x6 | x6 | x[K:treble] x5 | x6 | x!8va(! x5 | x6 | x6 | x6 | x!8va)! x5 | x6 |[K:bass] x6 | %81
 x6 | x6 | x6 | x6 | x6 | x6 | x6 | x6 | x6 | x6 | x6 | x6 | x6 | x6 | x6 | x6 | x6 | x6 | x6 | %100
 x6 | x6 | x6 | x6 | x6 | x6 | x6 | x6 | x6 | x6 | x6 | x6 | x6 | x6 | x6 | x6 | x6 | x6 | %118
 G,[C=E][CE][CE] ^G,[B,F] | A,[CE][CE][CE] E,[_B,CG] | F,[A,DF]/[A,DF]/ [A,DF][A,DF] G,[B,F] | x6 | %122
 x2 D,[B,F] .G,[B,F] | x6 | x6 | x6 | x6 | x6 | x6 | x6 | x6 | x6 | x6 | x6 | x6 | x6 | x6 | x6 | %138
 x6 | x6 | x6 | x6 | x6 | x6 | x6 | x6 | x6 | x6 | x6 | x6 | x6 | x6 | x4 F,[A,B,-] | x6 | x6 | %155
 x6 | x6 | x6 | x6 | x[K:treble] x5 | x6 | x!8va(! x5 | x6 | x6 | x6 | x!8va)! x5 | x6 | %167
[K:bass] x6 | x6 | x6 | x6 | x6 | x6 | x6 | x6 | x6 | x6 | x6 | x6 | x6 | x6 | x6 | x6 | x6 | x6 | %185
 x6 | x6 | x6 | x6 | x6 | x6 | x2 G,[DF] C[DF] | C[DF][DF][DF] B,[DF] | x6 | x6 | x2 G,[DF] C[DF] | %196
 C[DF][DF][DF] B,[DF] | x6 | x6 | x[K:treble] x5 | x6 | x6 | x6 | x6 | x6 | x6 |[K:bass] x6 | x6 | %208
 x6 | x2 G,[DF] C[DF] | C[DF][DF][DF] B,[DF] | x6 | x6 | x2 G,[DF] C[DF] | C[DF][DF][DF] B,[DF] | %215
 x6 | x6 |[K:treble] x6 | x6 | x6 | x6 | x2[K:bass] x4 | x6 | x6 | x6 | x[K:treble] x5 | x6 | x6 | %228
 x4[K:bass] x2 | x6 | x6 | x4[K:treble] x2 | x2[K:bass] x2[K:treble] x2 |[K:bass] x6 |] %234

